assets/icons/base/sign-out.svg

<!-- Generated by IcoMoon.io -->
<svg version="1.1" xmlns="http://www.w3.org/2000/svg" width="25" height="28" viewBox="0 0 25 28">
<title>sign-out</title>
<path d="M10 22.5c0 0.438 0.203 1.5-0.5 1.5h-5c-2.484 0-4.5-2.016-4.5-4.5v-11c0-2.484 2.016-4.5 4.5-4.5h5c0.266 0 0.5 0.234 0.5 0.5 0 0.438 0.203 1.5-0.5 1.5h-5c-1.375 0-2.5 1.125-2.5 2.5v11c0 1.375 1.125 2.5 2.5 2.5h4.5c0.391 0 1-0.078 1 0.5zM24.5 14c0 0.266-0.109 0.516-0.297 0.703l-8.5 8.5c-0.187 0.187-0.438 0.297-0.703 0.297-0.547 0-1-0.453-1-1v-4.5h-7c-0.547 0-1-0.453-1-1v-6c0-0.547 0.453-1 1-1h7v-4.5c0-0.547 0.453-1 1-1 0.266 0 0.516 0.109 0.703 0.297l8.5 8.5c0.187 0.187 0.297 0.438 0.297 0.703z"></path>
</svg>

<svg xmlns="http://www.w3.org/2000/svg" viewBox="0 0 25 28"><path d="M10 22.5c0 .438.203 1.5-.5 1.5h-5A4.502 4.502 0 0 1 0 19.5v-11C0 6.016 2.016 4 4.5 4h5c.266 0 .5.234.5.5 0 .438.203 1.5-.5 1.5h-5A2.507 2.507 0 0 0 2 8.5v11C2 20.875 3.125 22 4.5 22H9c.391 0 1-.078 1 .5zM24.5 14a.99.99 0 0 1-.297.703l-8.5 8.5A.996.996 0 0 1 15 23.5c-.547 0-1-.453-1-1V18H7c-.547 0-1-.453-1-1v-6c0-.547.453-1 1-1h7V5.5c0-.547.453-1 1-1a.99.99 0 0 1 .703.297l8.5 8.5A.996.996 0 0 1 24.5 14z"/></svg>
